images/3233002.svg

<?xml version="1.0" encoding="UTF-8"?>
<svg xmlns="http://www.w3.org/2000/svg" xmlns:xlink="http://www.w3.org/1999/xlink" width="300pt" height="300pt" viewBox="0 0 300 300" version="1.1">
<defs>
<g>
<symbol overflow="visible" id="glyph0-0">
<path style="stroke:none;" d="M 0.453125 1.59375 L 0.453125 -6.34375 L 4.953125 -6.34375 L 4.953125 1.59375 Z M 0.953125 1.09375 L 4.453125 1.09375 L 4.453125 -5.84375 L 0.953125 -5.84375 Z M 0.953125 1.09375 "/>
</symbol>
<symbol overflow="visible" id="glyph0-1">
<path style="stroke:none;" d="M 0.890625 -6.5625 L 2.078125 -6.5625 L 4.984375 -1.078125 L 4.984375 -6.5625 L 5.84375 -6.5625 L 5.84375 0 L 4.65625 0 L 1.75 -5.484375 L 1.75 0 L 0.890625 0 Z M 0.890625 -6.5625 "/>
</symbol>
<symbol overflow="visible" id="glyph0-2">
<path style="stroke:none;" d="M 3.546875 -5.953125 C 2.898438 -5.953125 2.382812 -5.710938 2 -5.234375 C 1.625 -4.753906 1.4375 -4.101562 1.4375 -3.28125 C 1.4375 -2.445312 1.625 -1.789062 2 -1.3125 C 2.382812 -0.832031 2.898438 -0.59375 3.546875 -0.59375 C 4.191406 -0.59375 4.703125 -0.832031 5.078125 -1.3125 C 5.453125 -1.789062 5.640625 -2.445312 5.640625 -3.28125 C 5.640625 -4.101562 5.453125 -4.753906 5.078125 -5.234375 C 4.703125 -5.710938 4.191406 -5.953125 3.546875 -5.953125 Z M 3.546875 -6.6875 C 4.460938 -6.6875 5.195312 -6.375 5.75 -5.75 C 6.300781 -5.132812 6.578125 -4.3125 6.578125 -3.28125 C 6.578125 -2.238281 6.300781 -1.410156 5.75 -0.796875 C 5.195312 -0.179688 4.460938 0.125 3.546875 0.125 C 2.617188 0.125 1.878906 -0.179688 1.328125 -0.796875 C 0.773438 -1.410156 0.5 -2.238281 0.5 -3.28125 C 0.5 -4.3125 0.773438 -5.132812 1.328125 -5.75 C 1.878906 -6.375 2.617188 -6.6875 3.546875 -6.6875 Z M 3.546875 -6.6875 "/>
</symbol>
</g>
</defs>
<g id="surface42153">
<rect x="0" y="0" width="300" height="300" style="fill:rgb(100%,100%,100%);fill-opacity:1;stroke:none;"/>
<path style="fill:none;stroke-width:1.2;stroke-linecap:butt;stroke-linejoin:miter;stroke:rgb(0%,0%,0%);stroke-opacity:1;stroke-miterlimit:10;" d="M 96.617188 120.015625 L 84.851562 121.632812 "/>
<path style="fill:none;stroke-width:1.2;stroke-linecap:butt;stroke-linejoin:miter;stroke:rgb(0%,0%,100%);stroke-opacity:1;stroke-miterlimit:10;" d="M 84.851562 121.632812 L 73.082031 123.246094 "/>
<path style="fill:none;stroke-width:1.2;stroke-linecap:butt;stroke-linejoin:miter;stroke:rgb(0%,0%,100%);stroke-opacity:1;stroke-miterlimit:10;" d="M 73.082031 123.246094 L 64.859375 114.675781 "/>
<path style="fill:none;stroke-width:1.2;stroke-linecap:butt;stroke-linejoin:miter;stroke:rgb(0%,0%,0%);stroke-opacity:1;stroke-miterlimit:10;" d="M 64.859375 114.675781 L 56.636719 106.105469 "/>
<path style="fill:none;stroke-width:1.2;stroke-linecap:butt;stroke-linejoin:miter;stroke:rgb(0%,0%,0%);stroke-opacity:1;stroke-miterlimit:10;" d="M 61.859375 144.183594 L 67.472656 133.714844 "/>
<path style="fill:none;stroke-width:1.2;stroke-linecap:butt;stroke-linejoin:miter;stroke:rgb(0%,0%,100%);stroke-opacity:1;stroke-miterlimit:10;" d="M 67.472656 133.714844 L 73.082031 123.246094 "/>
<path style=" stroke:none;fill-rule:nonzero;fill:rgb(100%,100%,100%);fill-opacity:1;" d="M 70.082031 117.746094 L 77.082031 117.746094 L 77.082031 128.746094 L 70.082031 128.746094 Z M 70.082031 117.746094 "/>
<g style="fill:rgb(0%,0%,100%);fill-opacity:1;">
  <use xlink:href="#glyph0-1" x="70.082031" y="126.40918"/>
</g>
<path style="fill:none;stroke-width:1.2;stroke-linecap:butt;stroke-linejoin:miter;stroke:rgb(0%,0%,0%);stroke-opacity:1;stroke-miterlimit:10;" d="M 56.636719 106.105469 L 35.25 116.449219 "/>
<path style="fill:none;stroke-width:1.2;stroke-linecap:butt;stroke-linejoin:miter;stroke:rgb(0%,0%,0%);stroke-opacity:1;stroke-miterlimit:10;" d="M 56.929688 112.171875 L 39.824219 120.445312 "/>
<path style="fill:none;stroke-width:1.2;stroke-linecap:butt;stroke-linejoin:miter;stroke:rgb(0%,0%,0%);stroke-opacity:1;stroke-miterlimit:10;" d="M 35.25 116.449219 L 38.480469 139.984375 "/>
<path style="fill:none;stroke-width:1.2;stroke-linecap:butt;stroke-linejoin:miter;stroke:rgb(0%,0%,0%);stroke-opacity:1;stroke-miterlimit:10;" d="M 38.480469 139.984375 L 61.859375 144.183594 "/>
<path style="fill:none;stroke-width:1.2;stroke-linecap:butt;stroke-linejoin:miter;stroke:rgb(0%,0%,0%);stroke-opacity:1;stroke-miterlimit:10;" d="M 41.804688 134.902344 L 60.511719 138.261719 "/>
<path style="fill:none;stroke-width:1.2;stroke-linecap:butt;stroke-linejoin:miter;stroke:rgb(0%,0%,0%);stroke-opacity:1;stroke-miterlimit:10;" d="M 61.859375 144.183594 L 72.203125 165.570312 "/>
<path style="fill:none;stroke-width:1.2;stroke-linecap:butt;stroke-linejoin:miter;stroke:rgb(0%,0%,0%);stroke-opacity:1;stroke-miterlimit:10;" d="M 69.894531 164 L 63.21875 173.828125 "/>
<path style="fill:none;stroke-width:1.2;stroke-linecap:butt;stroke-linejoin:miter;stroke:rgb(100%,0%,0%);stroke-opacity:1;stroke-miterlimit:10;" d="M 63.21875 173.828125 L 56.542969 183.652344 "/>
<path style="fill:none;stroke-width:1.2;stroke-linecap:butt;stroke-linejoin:miter;stroke:rgb(0%,0%,0%);stroke-opacity:1;stroke-miterlimit:10;" d="M 74.515625 167.140625 L 67.84375 176.96875 "/>
<path style="fill:none;stroke-width:1.2;stroke-linecap:butt;stroke-linejoin:miter;stroke:rgb(100%,0%,0%);stroke-opacity:1;stroke-miterlimit:10;" d="M 67.84375 176.96875 L 61.167969 186.792969 "/>
<path style="fill:none;stroke-width:1.2;stroke-linecap:butt;stroke-linejoin:miter;stroke:rgb(0%,0%,0%);stroke-opacity:1;stroke-miterlimit:10;" d="M 72.203125 165.570312 L 84.050781 166.4375 "/>
<path style="fill:none;stroke-width:1.2;stroke-linecap:butt;stroke-linejoin:miter;stroke:rgb(0%,0%,100%);stroke-opacity:1;stroke-miterlimit:10;" d="M 84.050781 166.4375 L 95.898438 167.304688 "/>
<path style=" stroke:none;fill-rule:nonzero;fill:rgb(100%,100%,100%);fill-opacity:1;" d="M 50.855469 179.722656 L 58.855469 179.722656 L 58.855469 190.722656 L 50.855469 190.722656 Z M 50.855469 179.722656 "/>
<g style="fill:rgb(100%,0%,0%);fill-opacity:1;">
  <use xlink:href="#glyph0-2" x="50.855469" y="188.385742"/>
</g>
<path style="fill:none;stroke-width:1.2;stroke-linecap:butt;stroke-linejoin:miter;stroke:rgb(0%,0%,100%);stroke-opacity:1;stroke-miterlimit:10;" d="M 95.898438 167.304688 L 101.070312 178 "/>
<path style="fill:none;stroke-width:1.2;stroke-linecap:butt;stroke-linejoin:miter;stroke:rgb(0%,0%,0%);stroke-opacity:1;stroke-miterlimit:10;" d="M 101.070312 178 L 106.242188 188.691406 "/>
<path style="fill:none;stroke-width:1.2;stroke-linecap:butt;stroke-linejoin:miter;stroke:rgb(0%,0%,0%);stroke-opacity:1;stroke-miterlimit:10;" d="M 109.246094 147.65625 L 102.570312 157.480469 "/>
<path style="fill:none;stroke-width:1.2;stroke-linecap:butt;stroke-linejoin:miter;stroke:rgb(0%,0%,100%);stroke-opacity:1;stroke-miterlimit:10;" d="M 102.570312 157.480469 L 95.898438 167.304688 "/>
<path style=" stroke:none;fill-rule:nonzero;fill:rgb(100%,100%,100%);fill-opacity:1;" d="M 92.898438 161.804688 L 99.898438 161.804688 L 99.898438 172.804688 L 92.898438 172.804688 Z M 92.898438 161.804688 "/>
<g style="fill:rgb(0%,0%,100%);fill-opacity:1;">
  <use xlink:href="#glyph0-1" x="92.898438" y="170.467773"/>
</g>
<path style="fill:none;stroke-width:1.2;stroke-linecap:butt;stroke-linejoin:miter;stroke:rgb(0%,0%,0%);stroke-opacity:1;stroke-miterlimit:10;" d="M 106.242188 188.691406 L 129.933594 190.425781 "/>
<path style="fill:none;stroke-width:1.2;stroke-linecap:butt;stroke-linejoin:miter;stroke:rgb(0%,0%,0%);stroke-opacity:1;stroke-miterlimit:10;" d="M 129.933594 190.425781 L 143.28125 170.777344 "/>
<path style="fill:none;stroke-width:1.2;stroke-linecap:butt;stroke-linejoin:miter;stroke:rgb(0%,0%,0%);stroke-opacity:1;stroke-miterlimit:10;" d="M 143.28125 170.777344 L 153.625 192.160156 "/>
<path style="fill:none;stroke-width:1.2;stroke-linecap:butt;stroke-linejoin:miter;stroke:rgb(0%,0%,0%);stroke-opacity:1;stroke-miterlimit:10;" d="M 143.28125 170.777344 L 132.9375 149.390625 "/>
<path style="fill:none;stroke-width:1.2;stroke-linecap:butt;stroke-linejoin:miter;stroke:rgb(0%,0%,0%);stroke-opacity:1;stroke-miterlimit:10;" d="M 156.632812 151.125 L 143.28125 170.777344 "/>
<path style="fill:none;stroke-width:1.2;stroke-linecap:butt;stroke-linejoin:miter;stroke:rgb(0%,0%,0%);stroke-opacity:1;stroke-miterlimit:10;" d="M 153.625 192.160156 L 177.320312 193.894531 "/>
<path style="fill:none;stroke-width:1.2;stroke-linecap:butt;stroke-linejoin:miter;stroke:rgb(0%,0%,0%);stroke-opacity:1;stroke-miterlimit:10;" d="M 177.320312 193.894531 L 190.667969 174.246094 "/>
<path style="fill:none;stroke-width:1.2;stroke-linecap:butt;stroke-linejoin:miter;stroke:rgb(0%,0%,0%);stroke-opacity:1;stroke-miterlimit:10;" d="M 190.667969 174.246094 L 185.496094 163.550781 "/>
<path style="fill:none;stroke-width:1.2;stroke-linecap:butt;stroke-linejoin:miter;stroke:rgb(0%,0%,100%);stroke-opacity:1;stroke-miterlimit:10;" d="M 185.496094 163.550781 L 180.324219 152.859375 "/>
<path style="fill:none;stroke-width:1.2;stroke-linecap:butt;stroke-linejoin:miter;stroke:rgb(0%,0%,100%);stroke-opacity:1;stroke-miterlimit:10;" d="M 180.324219 152.859375 L 168.476562 151.992188 "/>
<path style="fill:none;stroke-width:1.2;stroke-linecap:butt;stroke-linejoin:miter;stroke:rgb(0%,0%,0%);stroke-opacity:1;stroke-miterlimit:10;" d="M 168.476562 151.992188 L 156.632812 151.125 "/>
<path style="fill:none;stroke-width:1.2;stroke-linecap:butt;stroke-linejoin:miter;stroke:rgb(0%,0%,100%);stroke-opacity:1;stroke-miterlimit:10;" d="M 180.324219 152.859375 L 186.996094 143.035156 "/>
<path style="fill:none;stroke-width:1.2;stroke-linecap:butt;stroke-linejoin:miter;stroke:rgb(0%,0%,0%);stroke-opacity:1;stroke-miterlimit:10;" d="M 186.996094 143.035156 L 193.671875 133.207031 "/>
<path style=" stroke:none;fill-rule:nonzero;fill:rgb(100%,100%,100%);fill-opacity:1;" d="M 177.324219 147.359375 L 184.324219 147.359375 L 184.324219 158.359375 L 177.324219 158.359375 Z M 177.324219 147.359375 "/>
<g style="fill:rgb(0%,0%,100%);fill-opacity:1;">
  <use xlink:href="#glyph0-1" x="177.324219" y="156.022461"/>
</g>
<path style="fill:none;stroke-width:1.2;stroke-linecap:butt;stroke-linejoin:miter;stroke:rgb(0%,0%,0%);stroke-opacity:1;stroke-miterlimit:10;" d="M 193.671875 133.207031 L 217.363281 134.941406 "/>
<path style="fill:none;stroke-width:1.2;stroke-linecap:butt;stroke-linejoin:miter;stroke:rgb(0%,0%,0%);stroke-opacity:1;stroke-miterlimit:10;" d="M 217.363281 134.941406 L 227.707031 156.328125 "/>
<path style="fill:none;stroke-width:1.2;stroke-linecap:butt;stroke-linejoin:miter;stroke:rgb(0%,0%,0%);stroke-opacity:1;stroke-miterlimit:10;" d="M 223.429688 134.648438 L 231.707031 151.757812 "/>
<path style="fill:none;stroke-width:1.2;stroke-linecap:butt;stroke-linejoin:miter;stroke:rgb(0%,0%,0%);stroke-opacity:1;stroke-miterlimit:10;" d="M 230.714844 115.292969 L 217.363281 134.941406 "/>
<path style="fill:none;stroke-width:1.2;stroke-linecap:butt;stroke-linejoin:miter;stroke:rgb(0%,0%,0%);stroke-opacity:1;stroke-miterlimit:10;" d="M 227.707031 156.328125 L 251.402344 158.0625 "/>
<path style="fill:none;stroke-width:1.2;stroke-linecap:butt;stroke-linejoin:miter;stroke:rgb(0%,0%,0%);stroke-opacity:1;stroke-miterlimit:10;" d="M 251.402344 158.0625 L 258.074219 148.238281 "/>
<path style="fill:none;stroke-width:1.2;stroke-linecap:butt;stroke-linejoin:miter;stroke:rgb(0%,0%,100%);stroke-opacity:1;stroke-miterlimit:10;" d="M 258.074219 148.238281 L 264.75 138.414062 "/>
<path style="fill:none;stroke-width:1.2;stroke-linecap:butt;stroke-linejoin:miter;stroke:rgb(0%,0%,0%);stroke-opacity:1;stroke-miterlimit:10;" d="M 248.113281 152.957031 L 253.453125 145.097656 "/>
<path style="fill:none;stroke-width:1.2;stroke-linecap:butt;stroke-linejoin:miter;stroke:rgb(0%,0%,100%);stroke-opacity:1;stroke-miterlimit:10;" d="M 253.453125 145.097656 L 258.792969 137.238281 "/>
<path style="fill:none;stroke-width:1.2;stroke-linecap:butt;stroke-linejoin:miter;stroke:rgb(0%,0%,100%);stroke-opacity:1;stroke-miterlimit:10;" d="M 264.75 138.414062 L 259.578125 127.71875 "/>
<path style="fill:none;stroke-width:1.2;stroke-linecap:butt;stroke-linejoin:miter;stroke:rgb(0%,0%,0%);stroke-opacity:1;stroke-miterlimit:10;" d="M 259.578125 127.71875 L 254.40625 117.027344 "/>
<path style=" stroke:none;fill-rule:nonzero;fill:rgb(100%,100%,100%);fill-opacity:1;" d="M 261.75 132.914062 L 268.75 132.914062 L 268.75 143.914062 L 261.75 143.914062 Z M 261.75 132.914062 "/>
<g style="fill:rgb(0%,0%,100%);fill-opacity:1;">
  <use xlink:href="#glyph0-1" x="261.75" y="141.577148"/>
</g>
<path style="fill:none;stroke-width:1.2;stroke-linecap:butt;stroke-linejoin:miter;stroke:rgb(0%,0%,0%);stroke-opacity:1;stroke-miterlimit:10;" d="M 254.40625 117.027344 L 230.714844 115.292969 "/>
<path style="fill:none;stroke-width:1.2;stroke-linecap:butt;stroke-linejoin:miter;stroke:rgb(0%,0%,0%);stroke-opacity:1;stroke-miterlimit:10;" d="M 251.628906 122.429688 L 232.675781 121.039062 "/>
<path style="fill:none;stroke-width:1.2;stroke-linecap:butt;stroke-linejoin:miter;stroke:rgb(0%,0%,0%);stroke-opacity:1;stroke-miterlimit:10;" d="M 132.9375 149.390625 L 109.246094 147.65625 "/>
</g>
</svg>

<svg xmlns="http://www.w3.org/2000/svg" xmlns:xlink="http://www.w3.org/1999/xlink" width="300pt" height="300pt" viewBox="0 0 300 300"><defs><symbol overflow="visible"><path d="M.453 1.594v-7.938h4.5v7.938zm.5-.5h3.5v-6.938h-3.5zm0 0"/></symbol><symbol overflow="visible" id="a"><path d="M.89-6.563H2.08l2.906 5.485v-5.484h.86V0H4.656L1.75-5.484V0H.89zm0 0"/></symbol><symbol overflow="visible" id="b"><path d="M3.547-5.953c-.65 0-1.164.242-1.547.72-.375.48-.563 1.13-.563 1.952 0 .835.188 1.49.563 1.967.383.48.898.72 1.547.72.644 0 1.156-.24 1.53-.72.376-.476.564-1.132.564-1.968 0-.822-.187-1.474-.562-1.954-.375-.477-.887-.72-1.53-.72zm0-.734c.914 0 1.648.312 2.203.937.55.617.828 1.438.828 2.47 0 1.042-.277 1.87-.828 2.483-.555.617-1.29.922-2.203.922-.93 0-1.668-.305-2.22-.922C.774-1.41.5-2.237.5-3.28c0-1.033.273-1.853.828-2.47.55-.625 1.29-.938 2.22-.938zm0 0"/></symbol></defs><g><path fill="#fff" d="M0 0h300v300H0z"/><path d="M96.617 120.016l-11.765 1.617" stroke-width="1.2" stroke="#000" stroke-miterlimit="10" fill="none"/><path d="M84.852 121.633l-11.77 1.613M73.082 123.246l-8.223-8.57" stroke-width="1.2" stroke="#00f" stroke-miterlimit="10" fill="none"/><path d="M64.86 114.676l-8.223-8.57M61.86 144.184l5.613-10.47" stroke-width="1.2" stroke="#000" stroke-miterlimit="10" fill="none"/><path d="M67.473 133.715l5.61-10.47" stroke-width="1.2" stroke="#00f" stroke-miterlimit="10" fill="none"/><path d="M70.082 117.746h7v11h-7zm0 0" fill="#fff"/><use xlink:href="#a" x="70.082" y="126.409" fill="#00f"/><path d="M56.637 106.105L35.25 116.45M56.93 112.172l-17.106 8.273M35.25 116.45l3.23 23.534M38.48 139.984l23.38 4.2M41.805 134.902l18.707 3.36M61.86 144.184l10.343 21.386M69.895 164l-6.676 9.828" stroke-width="1.2" stroke="#000" stroke-miterlimit="10" fill="none"/><path d="M63.22 173.828l-6.677 9.824" stroke-width="1.2" stroke="#f00" stroke-miterlimit="10" fill="none"/><path d="M74.516 167.14l-6.672 9.83" stroke-width="1.2" stroke="#000" stroke-miterlimit="10" fill="none"/><path d="M67.844 176.97l-6.676 9.823" stroke-width="1.2" stroke="#f00" stroke-miterlimit="10" fill="none"/><path d="M72.203 165.57l11.848.868" stroke-width="1.2" stroke="#000" stroke-miterlimit="10" fill="none"/><path d="M84.05 166.438l11.848.867" stroke-width="1.2" stroke="#00f" stroke-miterlimit="10" fill="none"/><path d="M50.855 179.723h8v11h-8zm0 0" fill="#fff"/><use xlink:href="#b" x="50.855" y="188.386" fill="#f00"/><path d="M95.898 167.305L101.07 178" stroke-width="1.2" stroke="#00f" stroke-miterlimit="10" fill="none"/><path d="M101.07 178l5.172 10.69M109.246 147.656l-6.676 9.824" stroke-width="1.2" stroke="#000" stroke-miterlimit="10" fill="none"/><path d="M102.57 157.48l-6.672 9.825" stroke-width="1.2" stroke="#00f" stroke-miterlimit="10" fill="none"/><path d="M92.898 161.805h7v11h-7zm0 0" fill="#fff"/><use xlink:href="#a" x="92.898" y="170.468" fill="#00f"/><path d="M106.242 188.69l23.692 1.736M129.934 190.426l13.347-19.65M143.28 170.777l10.345 21.383M143.28 170.777l-10.343-21.386M156.633 151.125l-13.352 19.652M153.625 192.16l23.695 1.735M177.32 193.895l13.348-19.65M190.668 174.246l-5.172-10.695" stroke-width="1.2" stroke="#000" stroke-miterlimit="10" fill="none"/><path d="M185.496 163.55l-5.172-10.69M180.324 152.86l-11.847-.868" stroke-width="1.2" stroke="#00f" stroke-miterlimit="10" fill="none"/><path d="M168.477 151.992l-11.844-.867" stroke-width="1.2" stroke="#000" stroke-miterlimit="10" fill="none"/><path d="M180.324 152.86l6.672-9.825" stroke-width="1.2" stroke="#00f" stroke-miterlimit="10" fill="none"/><path d="M186.996 143.035l6.676-9.828" stroke-width="1.2" stroke="#000" stroke-miterlimit="10" fill="none"/><path d="M177.324 147.36h7v11h-7zm0 0" fill="#fff"/><use xlink:href="#a" x="177.324" y="156.022" fill="#00f"/><path d="M193.672 133.207l23.69 1.734M217.363 134.94l10.344 21.388M223.43 134.648l8.277 17.11M230.715 115.293l-13.352 19.648M227.707 156.328l23.695 1.734M251.402 158.063l6.672-9.825" stroke-width="1.2" stroke="#000" stroke-miterlimit="10" fill="none"/><path d="M258.074 148.238l6.676-9.824" stroke-width="1.2" stroke="#00f" stroke-miterlimit="10" fill="none"/><path d="M248.113 152.957l5.34-7.86" stroke-width="1.2" stroke="#000" stroke-miterlimit="10" fill="none"/><path d="M253.453 145.098l5.34-7.86M264.75 138.414l-5.172-10.695" stroke-width="1.2" stroke="#00f" stroke-miterlimit="10" fill="none"/><path d="M259.578 127.72l-5.172-10.693" stroke-width="1.2" stroke="#000" stroke-miterlimit="10" fill="none"/><path d="M261.75 132.914h7v11h-7zm0 0" fill="#fff"/><use xlink:href="#a" x="261.75" y="141.577" fill="#00f"/><path d="M254.406 117.027l-23.69-1.734M251.63 122.43l-18.954-1.39M132.938 149.39l-23.692-1.734" stroke-width="1.2" stroke="#000" stroke-miterlimit="10" fill="none"/></g></svg>
